X: 31081
T: COTILLION No. 16. EMMA QUADRILLE tune 1
C:
%R: jig
B: Elias Howe "The Musician's Companion" Part 3 1844 p.108 #1
S: http://imslp.org/wiki/The_Musician's_Companion_(Howe,_Elias)
Z: 2015 John Chambers <jc:trillian.mit.edu>
N: Strain 3 has only 7 bars.
N: The slurs in bars 1,3 have ambiguous left ends. (Slur them however you prefer.)
M: 6/8
L: 1/8
K: G
% - - - - - - - - - - - - - - - - - - - - - - - - - - - - -
G |\
B3 B(cdef)g | a3 e3 | d3 a(gfedc) | (d2c) B3 |\
BBc (d2g) | (g2e) (c2e) | (A2B) dcA | G3- G2 H|]
g |\
g2f e2a | a2f d2^c | B2B efe | d3 def |\
g2g f2f | e2^d fee | g2B dcA | G3 "^D.C."G2 |]
(3(A/B/c/) |\
d3 cBA | c2B AGF | GFG ABc | d3 cBA |\
e2d cBA | GFE DEF | AGG "^D.C."G2 |]
% - - - - - - - - - - Dance description - - - - - - - - - -
%%begintext align
%% First 4 right and left,
%% balance and turn partners,
%% ladies chain,
%% promenade 4.
%% Sides the same.
%%endtext
% - - - - - - - - - - - - - - - - - - - - - - - - - - - - -
%%sep 1 1 300
